X:1
T:Minstrel's Fancy -- Clog
R:clog
B:Ryan's Mammoth Collection
N: 157 936
Z: Contributed by Ray Davies,  ray:davies99.freeserve.co.uk
M:C|
L:1/8
K:D
u(F>.G)|\
"4"A>FA>d B>GB>d | "4"A>FA>d f2"4"e>d | c>eg>f "4"e>dc>d |\
 (3efe(3dcB A2F>G |
 "4"A>FA>d B>GB>d | A>FA>d f2e>d | c>eg>f e>dc>"4"e | d2f2 d2:|
|:u(e>.f)|\
g>fg>e c>AB>c | d>cd>e f2e>f | g>fg>e c>AB>c | (3efe(3dcB A2F>G |
 A>FA>d B>GB>d | A>FA>d f2e>d | c>eg>f "4"e>dc>e | d2f2 d2:|
